src/assets/images/mouth/35.svg

<svg width="32" height="32" viewBox="0 0 32 32" fill="none" xmlns="http://www.w3.org/2000/svg">
<path d="M15.9988 26C8.99878 26 8.99878 19 8.99878 19H22.9988C22.9988 19 22.9988 26 15.9988 26Z" fill="url(#paint0_radial_412_554)"/>
<path d="M16.0155 29C20.2155 29 20.8855 24.8 21.0155 23.75C21.1155 22.9 20.6655 22.47 20.1755 22.18C19.6855 21.89 18.2155 21.62 16.0155 21.62C13.8155 21.62 12.3555 21.89 11.8555 22.18C11.3555 22.47 10.9055 22.9 11.0155 23.75C11.1455 24.8 11.8155 29 16.0155 29Z" fill="url(#paint1_radial_412_554)"/>
<g opacity="0.5" filter="url(#filter0_f_412_554)">
<path d="M18 26.5C19 26 20 25 20 23.5" stroke="white"/>
</g>
<path d="M22.8588 20.43C22.9488 19.97 22.9988 19.49 22.9988 19C18.3388 19 11.8388 19 8.99878 19C8.99878 19.49 9.04878 19.96 9.13878 20.43H22.8588Z" fill="url(#paint2_linear_412_554)"/>
<defs>
<filter id="filter0_f_412_554" x="16.7764" y="22.5" width="4.7236" height="5.4472" filterUnits="userSpaceOnUse" color-interpolation-filters="sRGB">
<feFlood flood-opacity="0" result="BackgroundImageFix"/>
<feBlend mode="normal" in="SourceGraphic" in2="BackgroundImageFix" result="shape"/>
<feGaussianBlur stdDeviation="0.5" result="effect1_foregroundBlur_412_554"/>
</filter>
<radialGradient id="paint0_radial_412_554" cx="0" cy="0" r="1" gradientUnits="userSpaceOnUse" gradientTransform="translate(15.9988 27.5556) rotate(-90) scale(8.55556 17.1111)">
<stop stop-color="#F70A8D"/>
<stop offset="1" stop-color="#89029C"/>
</radialGradient>
<radialGradient id="paint1_radial_412_554" cx="0" cy="0" r="1" gradientUnits="userSpaceOnUse" gradientTransform="translate(16.5 30) rotate(-93.0128) scale(9.51315 16.5379)">
<stop stop-color="#FF1C4A"/>
<stop offset="0.765733" stop-color="#FF2B8F"/>
<stop offset="0.864496" stop-color="#BB0773"/>
<stop offset="0.886239" stop-color="#9F0762"/>
</radialGradient>
<linearGradient id="paint2_linear_412_554" x1="15.9988" y1="19" x2="15.9988" y2="20.43" gradientUnits="userSpaceOnUse">
<stop stop-color="#ECCDFF"/>
<stop offset="1" stop-color="white"/>
</linearGradient>
</defs>
</svg>

<svg width="32" height="32" fill="none" xmlns="http://www.w3.org/2000/svg"><path d="M15.999 26c-7 0-7-7-7-7h14s0 7-7 7z" fill="url(#a)"/><path d="M16.015 29c4.2 0 4.87-4.2 5-5.25.1-.85-.35-1.28-.84-1.57-.49-.29-1.96-.56-4.16-.56s-3.66.27-4.16.56c-.5.29-.95.72-.84 1.57.13 1.05.8 5.25 5 5.25z" fill="url(#b)"/><g opacity=".5" filter="url(#c)"><path d="M18 26.5c1-.5 2-1.5 2-3" stroke="#fff"/></g><path d="M22.859 20.43c.09-.46.14-.94.14-1.43h-14c0 .49.05.96.14 1.43h13.72z" fill="url(#d)"/><defs><radialGradient id="a" cx="0" cy="0" r="1" gradientUnits="userSpaceOnUse" gradientTransform="matrix(0 -8.55556 17.1111 0 15.999 27.556)"><stop stop-color="#F70A8D"/><stop offset="1" stop-color="#89029C"/></radialGradient><radialGradient id="b" cx="0" cy="0" r="1" gradientUnits="userSpaceOnUse" gradientTransform="matrix(-.5 -9.5 16.51504 -.86922 16.5 30)"><stop stop-color="#FF1C4A"/><stop offset=".766" stop-color="#FF2B8F"/><stop offset=".864" stop-color="#BB0773"/><stop offset=".886" stop-color="#9F0762"/></radialGradient><linearGradient id="d" x1="15.999" y1="19" x2="15.999" y2="20.43" gradientUnits="userSpaceOnUse"><stop stop-color="#ECCDFF"/><stop offset="1" stop-color="#fff"/></linearGradient><filter id="c" x="16.776" y="22.5" width="4.724" height="5.447" filterUnits="userSpaceOnUse" color-interpolation-filters="sRGB"><feFlood flood-opacity="0" result="BackgroundImageFix"/><feBlend in="SourceGraphic" in2="BackgroundImageFix" result="shape"/><feGaussianBlur stdDeviation=".5" result="effect1_foregroundBlur_412_554"/></filter></defs></svg>
